!!!COM: Palestrina, Giovanni Perluigi da
!!!OPR: Missa Dies sanctificatus
!!!OMD: Credo
!!!OTL: First Section
**kern	**kern	**kern	**kern
*Ibass	*Itenor	*Icalto	*Icant
!Bassus	!Tenor	!Altus	!Cantus
*clefF4	*clefGv2	*clefG2	*clefG2
*k[]	*k[]	*k[]	*k[]
*G:mix	*G:mix	*G:mix	*G:mix
*M4/2	*M4/2	*M4/2	*M4/2
=1	=1	=1	=1
2r	1d	0r	0r
2G	.	.	.
2G	1d	.	.
2F	.	.	.
=2	=2	=2	=2
4E	1e	0r	0r
4F	.	.	.
4G	.	.	.
4E	.	.	.
2F	2d	.	.
2G	2B	.	.
=3	=3	=3	=3
1A	1c	1r	1r
2.G	2B	2r	1dd
.	2G	2g	.
8F	.	.	.
8E	.	.	.
=4	=4	=4	=4
1D	2A	2g	2dd
.	2B	2f	2dd
1C	1c	4e	1ee
.	.	4f	.
.	.	4g	.
.	.	4e	.
=5	=5	=5	=5
0r	2d	2f	2dd
.	2e	2g	2b
.	4A	1a	1cc
.	4B	.	.
.	4c	.	.
.	4d	.	.
=6	=6	=6	=6
0r	4e	1g	1b
.	4f	.	.
.	2.g	.	.
.	.	1d	2a
.	4f	.	.
.	2f	.	[2dd
=7	=7	=7	=7
1.A	1e	2r	2dd]
.	.	1e	4cc
.	.	.	4b
.	1r	.	1cc
2A	.	2f	.
=8	=8	=8	=8
2B	1r	2g	2r
2c	.	2e	1a
1d	2r	2.f	.
.	[2d	.	2a
.	.	8e	.
.	.	8f	.
=9	=9	=9	=9
2B	2d]	2g	2b
2A	2e	1a	2cc
1d	2f	.	1dd
.	2d	2f	.
=10	=10	=10	=10
0r	2e	2g	2b
.	1f	1a	2a
.	.	.	2.cc
.	2c	[2g	.
.	.	.	4b
=11	=11	=11	=11
1.D	1d	2g]	1a
.	.	4f	.
.	.	4e	.
.	2A	1f	1r
2D	2B	.	.
=12	=12	=12	=12
2E	2c	2r	1r
2F	2A	2d	.
2G	2B	2e	2r
2A	2c	2e	[2a
=13	=13	=13	=13
4D	2d	2f	2a]
4E	.	.	.
2F	2.c	2.a	2a
1E	.	.	2b
.	4B	4g	.
.	4A	[2g	2cc
.	4G	.	.
=14	=14	=14	=14
1D	1A	2g]	2dd
.	.	2f#	2dd
2r	1G	[1g	4b
.	.	.	4cc
2G	.	.	4dd
.	.	.	4b
=15	=15	=15	=15
2c	1r	0g]	2.ee
1c	.	.	.
.	.	.	8dd
.	.	.	8cc
.	1G	.	1dd
2B	.	.	.
=16	=16	=16	=16
2e	2c	1r	1g
2e	1c	.	.
1d	.	1G	1r
.	2B	.	.
=17	=17	=17	=17
2.c	2e	2g	2r
.	2e	1g	2g
4B	.	.	.
1A	1c	.	2cc
.	.	2f	[2cc
=18	=18	=18	=18
1G	[0g	2e	2cc]
.	.	2d	2b
1C	.	2c	2ee
.	.	[2cc	2ee
=19	=19	=19	=19
1G	1g]	2cc]	1dd
.	.	2b	.
[1A	[1e	[1a	[1cc
=20	=20	=20	=20
2A]	1e]	2a]	2cc]
2E	.	2g	2b
1F	1c	1f	1a
=21	=21	=21	=21
1C	2c	2e	2g
.	2.e	2.cc	2.gg
1r	.	.	.
.	4e	4cc	4gg
.	2e	2b	2gg
=22	=22	=22	=22
0r	2f	2a	2cc
.	2d	2b	2dd
.	2c	2.cc	2.ee
.	2A	.	.
.	.	4b	4dd
=23	=23	=23	=23
1r	2A	2a	2cc
.	2e	2g#	2b
2r	1f	1a	[1a
[2d	.	.	.
=24	=24	=24	=24
2d]	2r	2f	1a]
2c	2a	2e	.
2B	2g	2d	1r
2A	2f	2a	.
=25	=25	=25	=25
2.c	2e	1g	0r
.	2.g	.	.
4B	.	.	.
1A	.	2c	.
.	8f#	.	.
.	8e	.	.
.	2f#	[2cc	.
=26	=26	=26	=26
1G	2g	2cc]	2r
.	2g	2b	1dd
1r	2f	2a	.
.	2e	2g	2cc
=27	=27	=27	=27
0r	2d	2f	2b
.	2f	2.a	2a
.	2e	.	1cc
.	.	4g	.
.	2c	[2g	.
=28	=28	=28	=28
1r	1d	2g]	2b
.	.	2f	2a
2r	2r	1e	[1g
2c	2c	.	.
=29	=29	=29	=29
2B	2d	1r	1g]
2G	2e	.	.
1A	1f#	2r	2r
.	.	2c	2cc
=30	=30	=30	=30
1G	2.g	2d	2b
.	.	2e	2g
.	8f	.	.
.	8e	.	.
1r	1d	1f#	1a
=31	=31	=31	=31
2r	2r	1g	1g
2G	2g	.	.
2A	2f	1r	1r
2B	2d	.	.
=32	=32	=32	=32
2.c	2.e	2r	2r
.	.	2g	2cc
4c	4e	.	.
1d	1d	2f	2a
.	.	2d	2b
=33	=33	=33	=33
2r	1r	2.e	2.cc
1c	.	.	.
.	.	4e	4cc
.	2r	1d	1dd
2B	[2g	.	.
=34	=34	=34	=34
1A	2g]	1r	2r
.	2f	.	1cc
1G	2e	2r	.
.	4d	[2g	2b
.	4c	.	.
=35	=35	=35	=35
1D	1d	2g]	1a
.	.	2f	.
2.E	2B	1e	[1g
.	[2c	.	.
4F	.	.	.
=36	=36	=36	=36
1G	4c]	2d	2g]
.	8B	.	.
.	8A	.	.
.	2B	2.e	2g
1A	1c	.	2e
.	.	4d	.
.	.	2c	2f#
=37	=37	=37	=37
0G	2d	2B	0g
.	2.c	2e	.
.	.	1d	.
.	8B	.	.
.	8A	.	.
.	2B	.	.
=38	=38	=38	=38
0C	1c	1e	1g
.	2.c	2.g	2.ee
.	4c	4g	4ee
=39	=39	=39	=39
0r	2c	2cc	2ee
.	2g	2b	2dd
.	1d	1a	1ff
=40	=40	=40	=40
0r	1a	1cc	2ee
.	.	.	1cc
.	1f	1a	.
.	.	.	2dd
=41	=41	=41	=41
0r	2g	2b	1ee
.	1a	1cc	.
.	.	.	1ee
.	2g	2b	.
=42	=42	=42	=42
0r	2f	2a	2dd
.	2e	2g	2cc
.	4d	4f	4dd
.	4e	4g	4cc
.	2f	[2a	4cc
.	.	.	8b
.	.	.	8a
=43	=43	=43	=43
1r	0e	4a]	1b
.	.	8g#	.
.	.	8f#	.
.	.	2g#	.
1A	.	2a	2a
.	.	2e	2cc
=44	=44	=44	=44
1G	2r	1g	1b
.	2e	.	.
2.B-	1d	2f	2.dd
.	.	2g	.
4B-	.	.	4dd
=45	=45	=45	=45
2A	2f	2a	1cc
4F	2f	1a	.
4G	.	.	.
4A	1e	.	1cc
4B	.	.	.
[2c	.	2g	.
=46	=46	=46	=46
2c]	2d	1G	1dd
2B	2d	.	.
[1c	1c	2r	[1ee
.	.	2e	.
=47	=47	=47	=47
1c]	2r	2.g	1ee]
.	2e	.	.
.	.	4f	.
1r	[1g	1e	2r
.	.	.	2b
=48	=48	=48	=48
0r	2g]	1d	1dd
.	2f	.	.
.	2.e	2.g	2cc
.	.	.	2b
.	4d	4f	.
=49	=49	=49	=49
0r	2c	2e	2.a
.	2.d	2.f	.
.	.	.	8g
.	.	.	8a
.	.	.	4b-
.	4c	4e	4a
.	4c	4e	[2a
.	8B-	8d	.
.	8A	8c	.
=50	=50	=50	=50
2r	2B-	2d	2a]
2d	2B-	2d	2g
2d	2A	1e	[1a
2c#	2e	.	.
=51	=51	=51	=51
1d	1.f	2r	0a]
.	.	2a	.
2A	.	[1cc	.
2A	4e	.	.
.	4d	.	.
=52	=52	=52	=52
1.c	1.e	2cc]	1r
.	.	2b	.
.	.	2a	2r
2B	2d	2g	2b
=53	=53	=53	=53
1A	2c	2a	1cc
.	2A	2.e	.
2G	2B	.	2b
.	.	4d	.
[2A	[2c	[2f	2a
=54	=54	=54	=54
4A]	2c]	4f]	2a
4G	.	4e	.
2E	2B	1e	2g
1F	2.A	.	1a
.	.	2d	.
.	4B	.	.
=55	=55	=55	=55
0C	2c	[0e	1g
.	2g	.	.
.	1g	.	2r
.	.	.	2gg
=56	=56	=56	=56
2r	2.c	1e]	1gg
2c	.	.	.
.	4d	.	.
1c	1e	2r	2.cc
.	.	2cc	.
.	.	.	4b
=57	=57	=57	=57
1.F	1f	1cc	4a
.	.	.	4g
.	.	.	1a
.	[1c	2f	.
2E	.	2g	2g
=58	=58	=58	=58
1F	1c]	1a	1f
1C	1c	1g	1e
=59	=59	=59	=59
1r	1r	1r	1r
1G	1B	1d	1g
=60	=60	=60	=60
1D	1d	1f#	1a
1G	2d	1g	1b
.	[2d	.	.
=61	=61	=61	=61
1F	2d]	1a	1cc
.	2.c	.	.
1D	.	1f	1dd
.	8B	.	.
.	8A	.	.
.	2B	.	.
=62	=62	=62	=62
4C	2c	4e	1ee
4D	.	4f	.
4E	1G	4g	.
4F	.	4a	.
2G	.	2b	1dd
2G	[2g	2b	.
=63	=63	=63	=63
1d	2g]	1a	1dd
.	2f#	.	.
2G	1g	2b	2dd
2G	.	2b	2dd
=64	=64	=64	=64
1c	1e	1cc	1g
1F	2f	2a	2cc
.	[2f	[2a	[2cc
=65	=65	=65	=65
0r	2f]	2a]	2cc]
.	2e	2g	2cc
.	2d	2a	2ff
.	2c	2cc	2ee
=66	=66	=66	=66
1r	2g	2b	2dd
.	2a	2a	2cc
[1G	1g	1b	1dd
=67	=67	=67	=67
1G]	1g	1b	1dd
[1c	[1g	[1cc	[1ee
=68	=68	=68	=68
1c]	1g]	1cc]	1ee]
1d	1f#	1a	1dd
=69	=69	=69	=69
0G	2g	2.g	0b
.	2d	.	.
.	.	4f	.
.	2.g	2e	.
.	.	2d	.
.	4f	.	.
=70	=70	=70	=70
0A	2e	2c#	0a
.	1d	2d	.
.	.	1e	.
.	2c#	.	.
=71	=71	=71	=71
0D	0d	0f#	0a
*-	*-	*-	*-
!!!CDT: 1525/^1526/-1594/2/2
!!!OCY: Italia
!!!AGN: Mass (Parody)
!!!AST: renaissance, vocal
!!!ASW: Motet 1563 (Palestrina)
!!!PWK: Masses, Book 6
!!!RNB: Cadence finals: D,A,C
!!!YOR: Le Opere Complete, v. 21, p. 1
!!!YOO: Rome, Italy: Fratelli Scalera
!!!END: 1992//
!!!EED: John Miller
!!!YEC: Copyright 2000, John Miller
!!!YEN: United States of America
!!!YEM: Rights to all derivative electronic formats reserved.
!!!YEM: Refer to licensing agreement for further details.
!!!YEM: This file must be accompanied by the licensing agreement.
!!!YEM: A copy of the licensing agreement may be found at http://www.music-cog.ohio-state.edu/HumdrumDatabases/Palestrina/license.txt
!!!EMD: converted to Humdrum by Bret Aarden
